X:169
T: Der Grenadier Latour d'Auvergne (3-7), S. 19f
N: K1144
O: Luxemburg
S: KINTZELE, Guillaume: An der Ucht, Bd. 3 Luxemburg 1928]
N: in der Quelle mit einer 2. Stimme versehen
R: historisches, Kriegs- und Soldatenlied]
M: 4/4
L: 1/16
K: Bb
F2G2A2 | B6B2c3B2AG2 | G4F4z2
d2d2d2 | d6c2B2A2G2F2 | c8z2
F2G2A2 | B6B2c3BA3G | G4F4z2
F2A2B2 | c2f4A2c2c2BAG2 | F8z2
F2G2F2 | c6c2c2e2d2c2 | B8z2
d2d2d2 | c6c2B2A2G2A2 | B8z2
F2G2F2 | c6c2c2e2d2c2 | f8
e8 | G8c8 | B8z2
F2=E2F2 | d8c8 | B8z2

@@@ Tune index: 8223
